X:337
T:The Foggy Dew
C:Irish
M:4/4
L:1/8
K:G major
Bd | "Em"e2 dB e2 dB | "D"A2 B2 "Bm"D2 EF | "G"GBAG "C"E2 E2 | "Em"E6 Bd |
e2 dB e2 dB | "D"A2 B2 "Bm"D2 EF | "G"GBAG "C"E2 E2 | "Em"E6 F2 |
"G"G3 B d2 cB | "D"A2 A2 "G"B2 GA | "Em"B2 gf "D"edBd | "C"e6 dB |
"Em"e2 dB e2 dB | "D"A2 B2 "Bm"D2 EF | "G"GBAG "C"E2 E2 | "Em"E6 |]

